!!!COM: Palestrina, Giovanni Perluigi da
!!!OPR: Panis quem ego dabo
!!!OTL: Kyrie
**kern	**kern	**kern	**kern
*Ibass	*Itenor	*Icalto	*Icant
!Bassus	!Tenor	!Altus	!Cantus
*clefF4	*clefGv2	*clefG2	*clefG2
*k[]	*k[]	*k[]	*k[]
*D:dor	*D:dor	*D:dor	*D:dor
*M4/2	*M4/2	*M4/2	*M4/2
=1	=1	=1	=1
0r	1c	0r	1r
.	2c	.	1g
.	2c	.	.
=2	=2	=2	=2
0r	2.e	0r	2g
.	.	.	2g
.	4f	.	.
.	4g	.	2.b
.	4a	.	.
.	[2g	.	.
.	.	.	4cc
=3	=3	=3	=3
0r	2g]	0r	4dd
.	.	.	4ee
.	4f	.	1dd
.	4e	.	.
.	2d	.	.
.	2e	.	4cc
.	.	.	4b
=4	=4	=4	=4
0r	2f#	1r	2a
.	2.g	.	2.b
.	.	1g	.
.	4f	.	4a
.	4e	.	[2dd
.	4d	.	.
=5	=5	=5	=5
0r	1e	2g	2dd]
.	.	2g	2cc#
.	2d	2f	4dd
.	.	.	4cc
.	[2G	2d	4b
.	.	.	4a
=6	=6	=6	=6
0r	4G]	1g	1b
.	4A	.	.
.	4B	.	.
.	4c	.	.
.	2d	2f#	2a
.	[2e	[2g	2cc
=7	=7	=7	=7
0r	4e]	4g]	2b
.	4d	4f	.
.	4c	4e	2.cc
.	4B	4d	.
.	4A	1e	.
.	4G	.	4b
.	[2g	.	4b
.	.	.	8a
.	.	.	8g
=8	=8	=8	=8
1r	2g]	1.d	1a
.	2f#	.	.
1G	1g	.	2b
.	.	2G	[2dd
=9	=9	=9	=9
2G	2.d	2.B	2dd]
2G	.	.	4cc
.	4e	4c	4b
2F	4f	[1d	1a
.	4g	.	.
2D	4a	.	.
.	4f	.	.
=10	=10	=10	=10
1G	1g	2d]	2.b
.	.	4c	.
.	.	4B	4cc
2F#	1r	2A	[1dd
[2G	.	[2B	.
=11	=11	=11	=11
4G]	1g	4B]	1dd]
4F	.	4c	.
4E	.	1d	.
4D	.	.	.
1E	2g	.	1r
.	2g	2c#	.
=12	=12	=12	=12
2D	2f	0d	0r
2.G	2d	.	.
.	1g	.	.
4A	.	.	.
4B	.	.	.
4c	.	.	.
=13	=13	=13	=13
2d	2f#	0r	1dd
2G	2.g	.	.
1B-	.	.	2dd
.	4f	.	.
.	4e	.	2dd
.	4d	.	.
=14	=14	=14	=14
2A	2e	2r	2cc
2D	1f	2.d	2a
1F	.	.	1dd
.	.	4e	.
.	4d	4f	.
.	4e	4g	.
=15	=15	=15	=15
0r	4f	2a	2cc
.	4g	.	.
.	2a	2d	2.dd
.	2d	1f	.
.	.	.	4cc
.	[2a	.	4b
.	.	.	4a
=16	=16	=16	=16
1r	2a]	1e	1b
.	2g#	.	.
1d	[1a	2f	1a
.	.	4d	.
.	.	4e	.
=17	=17	=17	=17
2d	2a]	4f	2r
.	.	4g	.
2d	2f	2.a	4a
.	.	.	4b
2c	1e	.	4cc
.	.	4g	4dd
2A	.	4cc	2ee
.	.	4b	.
=18	=18	=18	=18
1d	2.f	4a	2dd
.	.	4g	.
.	.	2.a	2ff
.	4g	.	.
2c#	1a	.	2ee
.	.	4g	.
[2d	.	4f	[2ff
.	.	4e	.
=19	=19	=19	=19
4d]	2f	0d	4ff]
4c	.	.	4ee
4B-	2.g	.	4dd
4A	.	.	4cc
1B-	.	.	4b-
.	4f	.	4cc
.	4e	.	[2dd
.	4d	.	.
=20	=20	=20	=20
0A	0e	0a	2dd]
.	.	.	4cc#
.	.	.	4b
.	.	.	1cc#
=21	=21	=21	=21
0D	0d	0f#	0dd
=22	=22	=22	=22
1.G	1r	0r	0r
.	[1d	.	.
2G	.	.	.
=23	=23	=23	=23
4B	2d]	1r	0r
4c	.	.	.
4d	2d	.	.
4B	.	.	.
4c	2e	2r	.
4B	.	.	.
4A	[2g	[2c	.
4G	.	.	.
=24	=24	=24	=24
2A	2g]	2c]	1r
2A	2f#	2c	.
1G	1g	2e	2r
.	.	2d	[2g
=25	=25	=25	=25
0r	1c	4e	2g]
.	.	4d	.
.	.	4e	2g
.	.	4f	.
.	1r	4g	4b
.	.	4e	4cc
.	.	4f	4dd
.	.	4g	4b
=26	=26	=26	=26
0r	1.c	2a	4cc
.	.	.	4b
.	.	1g	4a
.	.	.	4g
.	.	.	2a
.	2d	2f#	2a
=27	=27	=27	=27
1r	4e	1g	4g
.	4f	.	4a
.	4g	.	4b
.	4e	.	4cc
[1F	4f	[1a	4dd
.	4e	.	4cc
.	4d	.	[2cc
.	4c	.	.
=28	=28	=28	=28
2F]	1d	2a]	2cc]
2G	.	2g	2b
2A	2c	2r	[1cc
4F	2f	[2c	.
4G	.	.	.
=29	=29	=29	=29
4A	1e	2c]	1cc]
4G	.	.	.
4A	.	2c	.
4B	.	.	.
4c	1r	4e	1r
4A	.	4f	.
4B	.	4g	.
4c	.	4e	.
=30	=30	=30	=30
4d	0r	4f	1r
4c	.	4e	.
1c	.	4e	.
.	.	8d	.
.	.	8c	.
.	.	1d	2r
2B	.	.	[2g
=31	=31	=31	=31
2c	2r	2c	2g]
4B	1d	2G	2g
4A	.	.	.
1G	.	1g	4b
.	.	.	4cc
.	2d	.	4dd
.	.	.	4b
=32	=32	=32	=32
0r	4e	2c	4cc
.	4f	.	4b
.	4g	2e	4b
.	4e	.	8a
.	.	.	8g
.	4f	4d	2a
.	4e	4c	.
.	4e	[2c	2a
.	8d	.	.
.	8c	.	.
=33	=33	=33	=33
1.G	1d	2c]	[0g
.	.	4B	.
.	.	4A	.
.	2G	4B	.
.	.	4c	.
2G	[2g	4d	.
.	.	4B	.
=34	=34	=34	=34
4E	4g]	2c	1g]
4F	4f	.	.
4G	2e	2B	.
4E	.	.	.
4F	4d	1A	1r
4E	4c	.	.
4D	[2c	.	.
4C	.	.	.
=35	=35	=35	=35
1D	2c]	1r	2r
.	4B	.	1dd
.	4A	.	.
1G	1B	2r	.
.	.	[2g	2dd
=36	=36	=36	=36
1C	1c	2g]	4ee
.	.	.	4ff
.	.	2g	4gg
.	.	.	4ee
1r	1A	4a	4ff
.	.	4b	4ee
.	.	4cc	4ee
.	.	4a	8dd
.	.	.	8cc
=37	=37	=37	=37
0r	2G	4b-	2dd
.	.	4a	.
.	2c	4g	2.ee
.	.	4f	.
.	2e	2g	.
.	.	.	4dd
.	2f	[2a	2cc
=38	=38	=38	=38
0r	2g	4a]	2b
.	.	4g	.
.	2c	1g	2cc
.	1d	.	1a
.	.	2f#	.
=39	=39	=39	=39
1G	2r	2.g	2.b
.	1g	.	.
.	.	8f	4cc
.	.	8e	.
2B	.	2d	2dd
2c	2e	2A	[2ee
=40	=40	=40	=40
2d	2f	2a	4ee]
.	.	.	4dd
2G	2g	2b-	1dd
1A	1e	[1a	.
.	.	.	2cc#
=41	=41	=41	=41
2.D	0f	0a]	0dd
4E	.	.	.
2F	.	.	.
2G	.	.	.
=42	=42	=42	=42
0A	0e	0a	0cc#
=43	=43	=43	=43
0r	0r	0r	1a
.	.	.	2b
.	.	.	2g
=44	=44	=44	=44
0r	0r	1d	2.dd
.	.	.	4cc
.	.	2e	2b
.	.	2c	2ee
=45	=45	=45	=45
0r	1r	2.g	4dd
.	.	.	4cc
.	.	.	4b
.	.	4a	4a
.	2r	2b	2g
.	2A	[2cc	[2a
=46	=46	=46	=46
1r	2B	4cc]	4a]
.	.	4b	4g
.	2G	2b	1g
1D	2.d	1a	.
.	.	.	2f#
.	4c	.	.
=47	=47	=47	=47
2E	2B	2g	1g
2C	2e	2cc	.
2.G	4d	2b	2r
.	4c	.	.
.	4B	[2g	[2dd
4A	4A	.	.
=48	=48	=48	=48
2B	2G	4g]	2dd]
.	.	4f	.
1c	4c	4e	2g
.	4d	4d	.
.	4e	2c	2a
.	4f	.	.
2B	[2g	2d	2b
=49	=49	=49	=49
1A	2g]	2e	1.cc
.	2f	4c	.
.	.	4d	.
1G	2e	4e	.
.	.	4f	.
.	2d	[2g	2b
=50	=50	=50	=50
0A	2c#	2g]	0a
.	1d	2f	.
.	.	2e	.
.	2c#	2e	.
=51	=51	=51	=51
1D	1d	2f	2r
.	.	2d	2a
1r	2r	2a	2cc
.	2A	[2cc	2a
=52	=52	=52	=52
0r	2c	4cc]	2.ee
.	.	4b	.
.	2A	4cc	.
.	.	4a	4ff
.	2.e	2b	2gg
.	.	2cc	[2ee
.	4f	.	.
=53	=53	=53	=53
0r	2g	2b	4ee]
.	.	.	4dd
.	1a	2a	4cc
.	.	.	4b
.	.	2cc	2a
.	2g	[2b	[2dd
=54	=54	=54	=54
1r	1f	4b]	4dd]
.	.	4a	4cc
.	.	1a	2a
1E	1e	.	1b
.	.	2g#	.
=55	=55	=55	=55
2F	2A	2a	[0a
2D	2d	2f	.
2.A	2c	2e	.
.	2f	[2a	.
4B	.	.	.
=56	=56	=56	=56
2c	2e	4a]	0a]
.	.	4g	.
1d	2d	4f	.
.	.	4e	.
.	2f	2d	.
2c	[2e	4e	.
.	.	4f	.
=57	=57	=57	=57
1B-	4e]	4g	1r
.	4d	4f	.
.	1d	4e	.
.	.	4d	.
1A	.	1e	2r
.	2c#	.	2e
=58	=58	=58	=58
0D	2d	2d	2f
.	2.f	2.a	2d
.	.	.	2.a
.	4e	4g	.
.	2d	2f	.
.	.	.	4b
=59	=59	=59	=59
0r	2c	2e	2cc
.	2B	4d	1dd
.	.	4e	.
.	1A	4f	.
.	.	4g	.
.	.	[2a	2cc
=60	=60	=60	=60
1E	1e	2a]	1b
.	.	2g#	.
2F	2c	1a	2a
2D	2f	.	2dd
=61	=61	=61	=61
2.A	2e	2r	2cc
.	2.a	2.cc	2ff
4B	.	.	.
2c	.	.	2ee
.	4g	4b	.
[2d	4f	4a	2dd
.	4e	4g	.
=62	=62	=62	=62
2d]	2d	4f	2ff
.	.	4g	.
2c	2A	1a	2.ee
1B-	1d	.	.
.	.	.	4dd
.	.	2g	[2dd
=63	=63	=63	=63
0A	0e	1a	2dd]
.	.	.	4cc#
.	.	.	4b
.	.	1a	1cc#
=64	=64	=64	=64
0D	0d	0f#	0dd
==	==	==	==
*-	*-	*-	*-
!!!CDT: 1525/^1526/-1594/2/2
!!!OCY: Italia
!!!AGN: Mass (Parody)
!!!AST: renaissance, vocal
!!!ASW: Motet 1532 (Lupus Hellinck)
!!!PWK: Masses, Book 5
!!!RNB: Cadence finals: A
!!!YOR: Le Opere Complete, v. 15, p. 45
!!!YOO: Rome, Italy: Fratelli Scalera
!!!END: 1992//
!!!EED: John Miller
!!!YEC: Copyright 2000, John Miller
!!!YEN: United States of America
!!!YEM: Rights to all derivative electronic formats reserved.
!!!YEM: Refer to licensing agreement for further details.
!!!YEM: This file must be accompanied by the licensing agreement.
!!!YEM: A copy of the licensing agreement may be found at http://www.music-cog.ohio-state.edu/HumdrumDatabases/Palestrina/license.txt
!!!EMD: converted to Humdrum by Bret Aarden
